assets/icons/userinfo-select.svg

<svg width="24" height="24" viewBox="0 0 24 24" fill="none" xmlns="http://www.w3.org/2000/svg">
<circle cx="12" cy="7" r="5" fill="url(#paint0_linear_3055_5130)"/>
<path d="M14 8C14 8.13132 13.9483 8.26136 13.8478 8.38268C13.7472 8.50401 13.5999 8.61425 13.4142 8.70711C13.2285 8.79997 13.008 8.87362 12.7654 8.92388C12.5227 8.97413 12.2626 9 12 9C11.7374 9 11.4773 8.97413 11.2346 8.92388C10.992 8.87362 10.7715 8.79997 10.5858 8.70711C10.4001 8.61425 10.2528 8.50401 10.1522 8.38268C10.0517 8.26136 10 8.13132 10 8" stroke="url(#paint1_linear_3055_5130)" stroke-width="1.5" stroke-linecap="round" stroke-linejoin="round"/>
<path d="M2 20.2C2 16.2236 5.22355 13 9.2 13H14.8C18.7764 13 22 16.2235 22 20.2C22 21.1941 21.1941 22 20.2 22H3.8C2.80589 22 2 21.1941 2 20.2Z" fill="url(#paint2_linear_3055_5130)"/>
<defs>
<linearGradient id="paint0_linear_3055_5130" x1="7.68182" y1="3.5625" x2="14.0605" y2="9.11865" gradientUnits="userSpaceOnUse">
<stop stop-color="#1A6BEB"/>
<stop offset="1" stop-color="#6EA6FF"/>
</linearGradient>
<linearGradient id="paint1_linear_3055_5130" x1="11.375" y1="7" x2="15.0991" y2="7.31034" gradientUnits="userSpaceOnUse">
<stop stop-color="white"/>
<stop offset="1" stop-color="white" stop-opacity="0.5"/>
</linearGradient>
<linearGradient id="paint2_linear_3055_5130" x1="3.36364" y1="14.4062" x2="8.09034" y2="23.5556" gradientUnits="userSpaceOnUse">
<stop stop-color="#1A6BEB"/>
<stop offset="1" stop-color="#6EA6FF"/>
</linearGradient>
</defs>
</svg>

<svg xmlns="http://www.w3.org/2000/svg" width="24" height="24" fill="none" data-c="1"><circle cx="12" cy="7" r="5" fill="url(#a)"/><path stroke="url(#b)" stroke-linecap="round" stroke-linejoin="round" stroke-width="1.5" d="M14 8a.6.6 0 0 1-.152.383c-.1.121-.248.231-.434.324a2.7 2.7 0 0 1-.649.217c-.242.05-.502.076-.765.076s-.523-.026-.765-.076a2.7 2.7 0 0 1-.65-.217 1.3 1.3 0 0 1-.433-.324A.6.6 0 0 1 10 8"/><path fill="url(#c)" d="M2 20.2A7.2 7.2 0 0 1 9.2 13h5.6a7.2 7.2 0 0 1 7.2 7.2 1.8 1.8 0 0 1-1.8 1.8H3.8A1.8 1.8 0 0 1 2 20.2"/><defs><linearGradient id="a" x1="7.682" x2="14.06" y1="3.563" y2="9.119" gradientUnits="userSpaceOnUse"><stop stop-color="#1A6BEB"/><stop offset="1" stop-color="#6EA6FF"/></linearGradient><linearGradient id="b" x1="11.375" x2="15.099" y1="7" y2="7.31" gradientUnits="userSpaceOnUse"><stop stop-color="#fff"/><stop offset="1" stop-color="#fff" stop-opacity=".5"/></linearGradient><linearGradient id="c" x1="3.364" x2="8.09" y1="14.406" y2="23.556" gradientUnits="userSpaceOnUse"><stop stop-color="#1A6BEB"/><stop offset="1" stop-color="#6EA6FF"/></linearGradient></defs></svg>
